Catalina-light/actions/16/kstars_horizon.svg

<svg xmlns="http://www.w3.org/2000/svg" width="16" height="16" viewBox="0 0 16 16">
 <defs>
  <style id="current-color-scheme" type="text/css">
   .ColorScheme-Text { color:#5c616c; } .ColorScheme-Highlight { color:#5294e2; }
  </style>
 </defs>
 <path style="fill:currentColor" class="ColorScheme-Text" d="M 8 0 A 8 8 0 0 0 0 8 A 8 8 0 0 0 8 16 A 8 8 0 0 0 16 8 A 8 8 0 0 0 8 0 z M 8 1 A 7 7 0 0 1 15 8 A 7 7 0 0 1 8 15 A 7 7 0 0 1 1 8 A 7 7 0 0 1 8 1 z"/>
 <path style="fill:currentColor;opacity:0.3" class="ColorScheme-Text" d="M 0.03515625 7.2636719 C 0.03295625 7.2870519 0.03325 7.3105844 0.03125 7.3339844 A 8 8 0 0 1 0.0390625 7.2753906 C 0.0380959 7.2714906 0.03608625 7.2675919 0.03515625 7.2636719 z M 1.015625 8.4433594 A 7 7 0 0 0 8 15 A 7 7 0 0 0 14.976562 8.453125 C 13.602563 9.378125 10.987 10 8 10 C 5.003 9.999 2.383825 9.3733594 1.015625 8.4433594 z M 15.964844 8.6875 A 8 8 0 0 1 15.910156 9.140625 C 15.931686 8.990225 15.951794 8.84047 15.964844 8.6875 z M 0.041015625 8.8183594 A 8 8 0 0 0 0.2265625 9.8515625 C 0.14609287 9.5135539 0.076901364 9.1717202 0.041015625 8.8183594 z M 0.2265625 9.8515625 C 0.24889991 9.9453897 0.27126023 10.038347 0.296875 10.130859 A 8 8 0 0 1 0.2265625 9.8515625 z M 0.296875 10.130859 A 8 8 0 0 0 0.62890625 11.113281 C 0.49517647 10.797125 0.38967333 10.466016 0.296875 10.130859 z M 15.861328 9.4511719 A 8 8 0 0 1 15.755859 9.9335938 C 15.795489 9.7742738 15.831408 9.6141119 15.861328 9.4511719 z M 15.677734 10.234375 A 8 8 0 0 1 15.525391 10.693359 C 15.579661 10.541809 15.632504 10.389995 15.677734 10.234375 z M 15.417969 10.984375 A 8 8 0 0 1 15.208984 11.451172 C 15.282714 11.297512 15.353959 11.143295 15.417969 10.984375 z M 0.63085938 11.115234 C 0.73478938 11.360714 0.8495525 11.599801 0.9765625 11.832031 A 8 8 0 0 1 0.63085938 11.115234 z M 15.09375 11.689453 A 8 8 0 0 1 14.853516 12.111328 C 14.936816 11.972798 15.01877 11.833283 15.09375 11.689453 z M 1.0800781 12 C 1.1752961 12.16432 1.2706431 12.329678 1.3769531 12.486328 A 8 8 0 0 1 1.0800781 12 z M 14.677734 12.398438 A 8 8 0 0 1 14.445312 12.724609 C 14.524462 12.616829 14.603954 12.510237 14.677734 12.398438 z M 1.6152344 12.804688 A 8 8 0 0 0 1.8535156 13.115234 C 1.7701356 13.015154 1.6956815 12.908817 1.6171875 12.804688 L 1.6152344 12.804688 z M 14.216797 13.03125 A 8 8 0 0 1 13.947266 13.335938 C 14.037856 13.235057 14.131367 13.13666 14.216797 13.03125 z M 2.1210938 13.412109 C 2.2068708 13.505229 2.2907994 13.600503 2.3808594 13.689453 A 8 8 0 0 1 2.1210938 13.412109 z M 13.689453 13.619141 A 8 8 0 0 1 13.412109 13.878906 C 13.505229 13.793126 13.600503 13.709191 13.689453 13.619141 z M 2.6640625 13.947266 C 2.7649425 14.037856 2.86334 14.131367 2.96875 14.216797 A 8 8 0 0 1 2.6640625 13.947266 z M 13.115234 14.148438 A 8 8 0 0 1 12.804688 14.384766 C 12.908817 14.306266 13.015154 14.231817 13.115234 14.148438 z M 3.2753906 14.445312 C 3.3831706 14.524462 3.4897625 14.603954 3.6015625 14.677734 A 8 8 0 0 1 3.2753906 14.445312 z M 12.486328 14.623047 A 8 8 0 0 1 12 14.919922 C 12.16432 14.824702 12.329678 14.729357 12.486328 14.623047 z M 3.8886719 14.853516 C 4.0272019 14.936816 4.1667169 15.01877 4.3105469 15.09375 A 8 8 0 0 1 3.8886719 14.853516 z M 4.5488281 15.208984 C 4.7024881 15.282714 4.856705 15.353959 5.015625 15.417969 A 8 8 0 0 1 4.5488281 15.208984 z M 11.113281 15.371094 C 10.798514 15.504236 10.470327 15.608596 10.136719 15.701172 A 8 8 0 0 0 11.113281 15.371094 z M 10.136719 15.701172 A 8 8 0 0 1 9.8515625 15.775391 C 9.9475434 15.752566 10.042114 15.727425 10.136719 15.701172 z M 9.8515625 15.775391 C 9.5141736 15.855622 9.1710388 15.923166 8.8183594 15.958984 A 8 8 0 0 0 9.8515625 15.775391 z M 5.3066406 15.525391 C 5.4581906 15.579661 5.610005 15.632504 5.765625 15.677734 A 8 8 0 0 1 5.3066406 15.525391 z M 6.0664062 15.755859 L 6.0664062 15.757812 A 8 8 0 0 0 6.5488281 15.861328 C 6.3858881 15.831408 6.2257262 15.795489 6.0664062 15.755859 z M 6.859375 15.910156 C 7.009775 15.931686 7.15953 15.951794 7.3125 15.964844 A 8 8 0 0 1 6.859375 15.910156 z"/>
</svg>

<svg width="16" height="16" viewBox="0 0 16 16" xmlns="http://www.w3.org/2000/svg">
<defs>
<style id="current-color-scheme" type="text/css">.ColorScheme-Text { color:#5c616c; } .ColorScheme-Highlight { color:#5294e2; }</style>
</defs>
<path class="ColorScheme-Text" d="m8 0a8 8 0 0 0-8 8 8 8 0 0 0 8 8 8 8 0 0 0 8-8 8 8 0 0 0-8-8zm0 1a7 7 0 0 1 7 7 7 7 0 0 1-7 7 7 7 0 0 1-7-7 7 7 0 0 1 7-7z" fill="currentColor"/>
<path class="ColorScheme-Text" d="m0.035156 7.2637c-0.0022 0.02338-0.0019062 0.046912-0.0039062 0.070312a8 8 0 0 1 0.0078125-0.058594c-9.666e-4 -0.0039-0.0029762-0.0077987-0.0039062-0.011719zm0.98047 1.1797a7 7 0 0 0 6.9844 6.5566 7 7 0 0 0 6.9766-6.5469c-1.374 0.925-3.9896 1.5469-6.9766 1.5469-2.997-1e-3 -5.6162-0.62664-6.9844-1.5566zm14.949 0.24414a8 8 0 0 1-0.054688 0.45312c0.02153-0.1504 0.041638-0.30016 0.054688-0.45312zm-15.924 0.13086a8 8 0 0 0 0.18555 1.0332c-0.08047-0.33801-0.14966-0.67984-0.18555-1.0332zm0.18555 1.0332c0.022337 0.093827 0.044698 0.18678 0.070312 0.2793a8 8 0 0 1-0.070312-0.2793zm0.070312 0.2793a8 8 0 0 0 0.33203 0.98242c-0.13373-0.31616-0.23923-0.64726-0.33203-0.98242zm15.564-0.67969a8 8 0 0 1-0.10547 0.48242c0.03963-0.15932 0.075549-0.31948 0.10547-0.48242zm-0.18359 0.7832a8 8 0 0 1-0.15234 0.45898c0.05427-0.15155 0.10711-0.30336 0.15234-0.45898zm-0.25976 0.75a8 8 0 0 1-0.20898 0.4668c0.07373-0.15366 0.14498-0.30788 0.20898-0.4668zm-14.787 0.13086c0.10393 0.24548 0.21869 0.48457 0.3457 0.7168a8 8 0 0 1-0.3457-0.7168zm14.463 0.57422a8 8 0 0 1-0.24023 0.42188c0.0833-0.13853 0.16525-0.27804 0.24023-0.42188zm-14.014 0.31055c0.095218 0.16432 0.19056 0.32968 0.29688 0.48633a8 8 0 0 1-0.29688-0.48633zm13.598 0.39844a8 8 0 0 1-0.23242 0.32617c0.07915-0.10778 0.15864-0.21437 0.23242-0.32617zm-13.062 0.40625a8 8 0 0 0 0.23828 0.31055c-0.08338-0.10008-0.15783-0.20642-0.23633-0.31055h-0.0019531zm12.602 0.22656a8 8 0 0 1-0.26953 0.30469c0.09059-0.10088 0.1841-0.19928 0.26953-0.30469zm-12.096 0.38086c0.085777 0.09312 0.16971 0.18839 0.25977 0.27734a8 8 0 0 1-0.25977-0.27734zm11.568 0.20703a8 8 0 0 1-0.27734 0.25976c0.09312-0.08578 0.18839-0.16972 0.27734-0.25976zm-11.025 0.32812c0.10088 0.09059 0.19928 0.1841 0.30469 0.26953a8 8 0 0 1-0.30469-0.26953zm10.451 0.20117a8 8 0 0 1-0.31055 0.23633c0.10413-0.0785 0.21047-0.15295 0.31055-0.23633zm-9.8398 0.29687c0.10778 0.07915 0.21437 0.15864 0.32617 0.23242a8 8 0 0 1-0.32617-0.23242zm9.2109 0.17774a8 8 0 0 1-0.48633 0.29688c0.16432-0.09522 0.32968-0.19056 0.48633-0.29688zm-8.5977 0.23047c0.13853 0.0833 0.27804 0.16525 0.42188 0.24023a8 8 0 0 1-0.42188-0.24023zm0.66016 0.35547c0.15366 0.07373 0.30788 0.14498 0.4668 0.20898a8 8 0 0 1-0.4668-0.20898zm6.5645 0.16211c-0.31477 0.13314-0.64295 0.2375-0.97656 0.33008a8 8 0 0 0 0.97656-0.33008zm-0.97656 0.33008a8 8 0 0 1-0.28516 0.074219c0.095981-0.022825 0.19055-0.047966 0.28516-0.074219zm-0.28516 0.074219c-0.33739 0.080231-0.68052 0.14778-1.0332 0.18359a8 8 0 0 0 1.0332-0.18359zm-4.5449-0.25c0.15155 0.05427 0.30336 0.10711 0.45898 0.15234a8 8 0 0 1-0.45898-0.15234zm0.75977 0.23047v0.001953a8 8 0 0 0 0.48242 0.10352c-0.16294-0.02992-0.3231-0.065839-0.48242-0.10547zm0.79297 0.1543c0.1504 0.02153 0.30016 0.041638 0.45312 0.054688a8 8 0 0 1-0.45312-0.054688z" fill="currentColor" opacity=".3"/>
</svg>
